src/assets/img/icons/duotone-icons/Food/Orange.svg

<?xml version="1.0" encoding="UTF-8"?>
<svg width="24px" height="24px" viewBox="0 0 24 24" version="1.1" xmlns="http://www.w3.org/2000/svg" xmlns:xlink="http://www.w3.org/1999/xlink">
    <!-- Generator: Sketch 52.2 (67145) - http://www.bohemiancoding.com/sketch -->
    <title>Stockholm-icons / Food / Orange</title>
    <desc>Created with Sketch.</desc>
    <g id="Stockholm-icons-/-Food-/-Orange" stroke="none" stroke-width="1" fill="none" fill-rule="evenodd">
        <rect id="bound" x="0" y="0" width="24" height="24"></rect>
        <path d="M12,19 C15.8659932,19 19,15.8659932 19,12 C19,8.13400675 15.8659932,5 12,5 C8.13400675,5 5,8.13400675 5,12 C5,15.8659932 8.13400675,19 12,19 Z M12,21 C7.02943725,21 3,16.9705627 3,12 C3,7.02943725 7.02943725,3 12,3 C16.9705627,3 21,7.02943725 21,12 C21,16.9705627 16.9705627,21 12,21 Z" id="Oval-68" fill="#335EEA"></path>
        <path d="M12,9.66666667 C11.3333333,8.64514991 11,7.88126102 11,7.375 C11,6.61560847 11.4477153,6 12,6 C12.5522847,6 13,6.61560847 13,7.375 C13,7.88126102 12.6666667,8.64514991 12,9.66666667 Z M12,14 C12.6666667,15.0215168 13,15.7854056 13,16.2916667 C13,17.0510582 12.5522847,17.6666667 12,17.6666667 C11.4477153,17.6666667 11,17.0510582 11,16.2916667 C11,15.7854056 11.3333333,15.0215168 12,14 Z M14.3333333,12 C15.3548501,11.3333333 16.118739,11 16.625,11 C17.3843915,11 18,11.4477153 18,12 C18,12.5522847 17.3843915,13 16.625,13 C16.118739,13 15.3548501,12.6666667 14.3333333,12 Z M10,12 C8.97848324,12.6666667 8.21459435,13 7.70833333,13 C6.9489418,13 6.33333333,12.5522847 6.33333333,12 C6.33333333,11.4477153 6.9489418,11 7.70833333,11 C8.21459435,11 8.97848324,11.3333333 10,12 Z M13.6499158,10.3500842 C13.9008327,9.15635823 14.2052815,8.38050496 14.5632621,8.02252436 C15.100233,7.48555345 15.8521164,7.36683502 16.2426407,7.75735931 C16.633165,8.1478836 16.5144465,8.89976702 15.9774756,9.43673792 C15.619495,9.79471852 14.8436418,10.0991673 13.6499158,10.3500842 Z M10.5857864,13.4142136 C10.3348695,14.6079395 10.0304208,15.3837928 9.67244018,15.7417734 C9.13546928,16.2787443 8.38358587,16.3974627 7.99306157,16.0069384 C7.60253728,15.6164141 7.72125572,14.8645307 8.25822662,14.3275598 C8.61620722,13.9695792 9.39206049,13.6651305 10.5857864,13.4142136 Z M13.6499158,13.6499158 C14.8436418,13.9008327 15.619495,14.2052815 15.9774756,14.5632621 C16.5144465,15.100233 16.633165,15.8521164 16.2426407,16.2426407 C15.8521164,16.633165 15.100233,16.5144465 14.5632621,15.9774756 C14.2052815,15.619495 13.9008327,14.8436418 13.6499158,13.6499158 Z M10.5857864,10.5857864 C9.39206049,10.3348695 8.61620722,10.0304208 8.25822662,9.67244018 C7.72125572,9.13546928 7.60253728,8.38358587 7.99306157,7.99306157 C8.38358587,7.60253728 9.13546928,7.72125572 9.67244018,8.25822662 C10.0304208,8.61620722 10.3348695,9.39206049 10.5857864,10.5857864 Z" id="Combined-Shape" fill="#335EEA" opacity="0.3"></path>
    </g>
</svg>

<svg width="24" height="24" viewBox="0 0 24 24" xmlns="http://www.w3.org/2000/svg"><g fill="none" fill-rule="evenodd"><path d="M0 0h24v24H0z"/><path d="M12 19a7 7 0 100-14 7 7 0 000 14zm0 2a9 9 0 110-18 9 9 0 010 18z" fill="#335EEA"/><path d="M12 9.667c-.667-1.022-1-1.786-1-2.292C11 6.615 11.448 6 12 6s1 .616 1 1.375c0 .506-.333 1.27-1 2.292zM12 14c.667 1.022 1 1.785 1 2.292 0 .76-.448 1.375-1 1.375s-1-.616-1-1.375c0-.507.333-1.27 1-2.292zm2.333-2c1.022-.667 1.786-1 2.292-1 .76 0 1.375.448 1.375 1s-.616 1-1.375 1c-.506 0-1.27-.333-2.292-1zM10 12c-1.022.667-1.785 1-2.292 1-.76 0-1.375-.448-1.375-1s.616-1 1.375-1c.507 0 1.27.333 2.292 1zm3.65-1.65c.25-1.194.555-1.97.913-2.327.537-.537 1.29-.656 1.68-.266.39.39.271 1.143-.266 1.68-.358.358-1.133.662-2.327.913zm-3.064 3.064c-.251 1.194-.556 1.97-.914 2.328-.537.537-1.288.655-1.679.265-.39-.39-.272-1.142.265-1.68.358-.357 1.134-.662 2.328-.913zm3.064.236c1.194.25 1.97.555 2.327.913.537.537.656 1.29.266 1.68-.39.39-1.143.271-1.68-.266-.358-.358-.662-1.133-.913-2.327zm-3.064-3.064c-1.194-.251-1.97-.556-2.328-.914-.537-.537-.655-1.288-.265-1.679.39-.39 1.142-.272 1.68.265.357.358.662 1.134.913 2.328z" fill="#335EEA" opacity=".3"/></g></svg>
